/* XPM */
static char *bell_dot[] = {
/* columns rows colors chars-per-pixel */
"11 14 26 1 ",
"  c None",
". c #42453F",
"X c #544839",
"o c #444640",
"O c #494943",
"+ c #4A4A44",
"@ c #4C4B45",
"# c #4E4D46",
"$ c #4F4D46",
"% c #4F4E47",
"& c #535049",
"* c #545049",
"= c #54514A",
"- c #55514A",
"; c #56524B",
": c #57534B",
"> c #5A554D",
", c #5D564E",
"< c #5F5750",
"1 c #605851",
"2 c #625951",
"3 c #635A52",
"4 c #655C54",
"5 c #665C54",
"6 c #9C5421",
"7 c #D65D0E",
/* pixels */
"        XX ",
"   o@. 6776",
"   :5+X7777",
" o,55:X7777",
" :5551 6776",
" 15555: XX ",
" 555555>   ",
" 555555<   ",
" 555555<   ",
":5555555$  ",
"&&&:::&&$  ",
"   $1O     ",
"           ",
"           "
};
